X:10
T:Pre, je te bnis
M:2/4
L:1/8
K:Dm
D2|"Rem"DE FD|"Lam"C3 C|"Rem"FF "Do"GG|"Fa"A3 A|"Sib"BA GF|"Fa"A2 "Do"GG|\
"Lam"AG FE|"Rem"F3F|
"Solm"GF ED|"La4/3"F2 E2|z2 "Rem"D2|DE FD|"Do"E2 (3EFG|"Fa"F2 "Lam"E2|"Rem"D4||
